X:638
T:Lasses Trust In Providence
C:Joe Buchanan's Scottish Tome - Page 190.3
I:190 3
Z:Carl Allison
R:Reel
L:1/8
M:4/4
K:D
((3ABc) | d2 (de) fdef | {Bc}d2 (fd) ed{Bc}BA | {Bc}d2 (de) fdef | dBAF E2 A2 ((3ABc) |
d2 (de) fdef | {Bc}d2 (fd) ed{Bc}BA | {Bc}B2 d2 (de) fdef | dBAF E2 FG |
A2 (AB) ADFA | {c}d2 d2 BABd | A2 (AB) ADFA | GFEC D2 F |
A2 (AB) ADFA | {c}d2 d2 BABd | A2 (AB) ADFA | GFEC D2 z2 |]

